X:20
T:Claw her weam
Z:Jack Campin <http://www.campin.me.uk/>
T:The Lass of Livingston
S:Atkinson MS via MH
N:MH appears to indicate B2 as an alternate first note in bar 7
M:4/4
L:1/8
Q:1/4=120
K:D Minor
C/D/ |F3 G A3 f|cAcf cA`GF|A3  F G3  F/G/|A3 G G3
F/>D/|F3 G A3 d|cAGF GA c2|d2 D2 D2 CD   |F2D2 D2:|
a/g/ |fcfg fgag|fcdf cA`GF|A3  G G3  F   |A3 G G3
F/D/ |fgag fafd|cAcd cd`fg|a2 D2 D2 CD   |F2D2 D2:|
